X: 33487
T: Rags To Riches
R: reel
M: 4/4
K: Dmajor
dBcA BAFA|EAFA EAFA|dBcA BAFB|ABde fafe|
dBcA BAFA|EAFA EAFA|dBcA BAFB|ABde fd d2|
a2 af dfaf|ceAe ceAe|a2 af dfaf|ecAc ed d2|
a2 af dfaf|edcd Bc A2|dedB AFED|FAde fd d2|

